packages/icons/raw/shadcn/milk-off.svg

<svg width="24" height="24" viewBox="0 0 24 24" fill="none" xmlns="http://www.w3.org/2000/svg">
<path d="M8 2H16" stroke="black" stroke-width="2" stroke-linecap="round" stroke-linejoin="round"/>
<path d="M9 2V3.343M15 2V4.789C15 5.57879 15.2338 6.3509 15.672 7.008L16.328 7.992C16.7663 8.64939 17.0002 9.42187 17 10.212V11.343M7.8 7.8L7.672 7.992C7.23366 8.64939 6.99982 9.42187 7 10.212V20C7 20.5304 7.21071 21.0391 7.58579 21.4142C7.96086 21.7893 8.46957 22 9 22H15C15.5304 22 16.0391 21.7893 16.4142 21.4142C16.7893 21.0391 17 20.5304 17 20V17" stroke="black" stroke-width="2" stroke-linecap="round" stroke-linejoin="round"/>
<path d="M7 14.9999C7.79175 14.6683 8.64158 14.4974 9.5 14.4974C10.3584 14.4974 11.2083 14.6683 12 14.9999C13.0842 15.4542 14.2717 15.6046 15.435 15.4349" stroke="black" stroke-width="2" stroke-linecap="round" stroke-linejoin="round"/>
<path d="M2 2L22 22" stroke="black" stroke-width="2" stroke-linecap="round" stroke-linejoin="round"/>
</svg>

<!-- @license lucide-static v1.23.0 - ISC -->
<svg
  class="lucide lucide-milk-off"
  xmlns="http://www.w3.org/2000/svg"
  width="24"
  height="24"
  viewBox="0 0 24 24"
  fill="none"
  stroke="currentColor"
  stroke-width="2"
  stroke-linecap="round"
  stroke-linejoin="round"
>
  <path d="M8 2h8" />
  <path d="M9 2v1.343M15 2v2.789a4 4 0 0 0 .672 2.219l.656.984a4 4 0 0 1 .672 2.22v1.131M7.8 7.8l-.128.192A4 4 0 0 0 7 10.212V20a2 2 0 0 0 2 2h6a2 2 0 0 0 2-2v-3" />
  <path d="M7 15a6.47 6.47 0 0 1 5 0 6.472 6.472 0 0 0 3.435.435" />
  <line x1="2" x2="22" y1="2" y2="22" />
</svg>
